img/arrow_contacts.svg

<svg width="617" height="406" fill="none" xmlns="http://www.w3.org/2000/svg"><path d="M36.445 83.117c10.477 199.881 405.349 270.337 378.12 89.745-1.194-7.92-4.185-15.815-9.394-21.89-41.874-48.828-157.494-52.47-130.466 91.912 1.586 8.472 4.801 16.715 10.061 23.538 42.228 54.765 156.504 112.602 292.771 65.383" stroke="#191919" stroke-width="3" stroke-dasharray="14.65 14.65"/><path d="M559.714 316.816a1.84 1.84 0 00.024 1.414c.195.433.563.757 1.023.903l25.751 8.194-10.079 26.489c-.181.474-.172.981.024 1.414.195.433.563.757 1.023.903.224.072.465.097.708.074a1.96 1.96 0 00.706-.208 2.07 2.07 0 00.983-1.09l10.715-28.176a1.926 1.926 0 00-.025-1.477 1.743 1.743 0 00-1.069-.944l-27.385-8.717a1.787 1.787 0 00-.708-.073 1.96 1.96 0 00-.706.208 2.067 2.067 0 00-.595.456 2.025 2.025 0 00-.388.633l-.002-.003z" fill="#191919"/></svg>

<svg width="617" height="406" viewBox="0 0 617 406" fill="none" xmlns="http://www.w3.org/2000/svg">
<path d="M36.4446 83.1171C46.9217 282.998 441.794 353.454 414.565 172.862C413.371 164.942 410.38 157.047 405.171 150.972C363.297 102.144 247.677 98.5025 274.705 242.884C276.291 251.356 279.506 259.599 284.766 266.422C326.994 321.187 441.27 379.024 577.537 331.805" stroke="#191919" stroke-width="3" stroke-dasharray="14.65 14.65"/>
<path d="M559.714 316.816C559.534 317.289 559.542 317.797 559.738 318.23C559.933 318.663 560.301 318.987 560.761 319.133L586.512 327.327L576.433 353.816C576.252 354.29 576.261 354.797 576.457 355.23C576.652 355.663 577.02 355.987 577.48 356.133C577.704 356.205 577.945 356.23 578.188 356.207C578.431 356.184 578.671 356.113 578.894 355.999C579.118 355.885 579.32 355.729 579.489 355.542C579.658 355.355 579.79 355.14 579.877 354.909L590.592 326.733C590.78 326.239 590.771 325.708 590.567 325.256C590.362 324.804 589.979 324.465 589.498 324.312L562.113 315.595C561.889 315.524 561.648 315.499 561.405 315.522C561.162 315.545 560.922 315.616 560.699 315.73C560.475 315.844 560.273 315.999 560.104 316.186C559.936 316.373 559.803 316.589 559.716 316.819L559.714 316.816Z" fill="#191919"/>
</svg>
